X: 2
T:Sally's Jig
R:jig
Z:added by Alf 
M:6/8
L:1/8
K:G
|:BcB AGA|B2G D2D|E2A ABA|E2A A2A|BcB AGA|B2G D2D|
EAG FEF|G3 G3::Bdd Bdg|e2d B2G|E2A ABA|E2A A2c||[1 Bdd Bdg|
e2d B2G|EAG FEF|G3 G3:|[2 BcB AGA|B2G D2D|EAG FEF|G3 G3|]
